X:520
T:Polska # 520
Q: 110
M:3/4
L:1/16
K: G
d2| d3c B3A B3A| B3c d6d2| d2Bd c2Ac B2GB| A2FA G2D2 B,2D2| d3c B3A B3A|
B3c d6d2| d2Bd c2Ac B2GB| A2FA G6 :: G,2| G,3A, A,2A,2 A,2A,2| G,3C C2C2 C2C2| G,3B, D2G2 B2d2|
AcAF G2z2 G2z2:|

